Apricity Icons/24/panel/input-keyboard-virtual-off.svg

<svg xmlns="http://www.w3.org/2000/svg" width="24" height="24" version="1.1">
 <defs>
  <style id="current-color-scheme" type="text/css">
   .ColorScheme-Text { color:#dfdfdf; } .ColorScheme-Highlight { color:#4285f4; }
  </style>
 </defs>
 <path style="opacity:0.3;fill:currentColor" class="ColorScheme-Text" d="M 6,6 C 6,6 4,6 4,8 l 0,8 c 0,2 2,2 2,2 l 11,0 c 0,0 2,0 2,-2 L 19,8 C 19,6 17,6 17,6 L 6,6 Z m 0.25,2 1.5,0 C 7.8885,8 8,8.1115 8,8.25 l 0,1.5 C 8,9.8885 7.8885,10 7.75,10 l -1.5,0 C 6.1115,10 6,9.8885 6,9.75 L 6,8.25 C 6,8.1115 6.1115,8 6.25,8 Z m 3,0 1.5,0 C 10.8885,8 11,8.1115 11,8.25 l 0,1.5 C 11,9.8885 10.8885,10 10.75,10 l -1.5,0 C 9.1115,10 9,9.8885 9,9.75 L 9,8.25 C 9,8.1115 9.1115,8 9.25,8 Z m 3,0 1.5,0 C 13.888,8 14,8.1115 14,8.25 l 0,1.5 C 14,9.8885 13.888,10 13.75,10 l -1.5,0 C 12.112,10 12,9.8885 12,9.75 l 0,-1.5 C 12,8.1115 12.112,8 12.25,8 Z m 3,0 1.5,0 C 16.888,8 17,8.1115 17,8.25 l 0,1.5 C 17,9.8885 16.888,10 16.75,10 l -1.5,0 C 15.112,10 15,9.8885 15,9.75 l 0,-1.5 C 15,8.1115 15.112,8 15.25,8 Z m -9,3 1.5,0 C 7.8885,11 8,11.112 8,11.25 l 0,1.5 C 8,12.888 7.8885,13 7.75,13 l -1.5,0 C 6.1115,13 6,12.888 6,12.75 l 0,-1.5 C 6,11.112 6.1115,11 6.25,11 Z m 3,0 1.5,0 c 0.1385,0 0.25,0.112 0.25,0.25 l 0,1.5 C 11,12.888 10.8885,13 10.75,13 l -1.5,0 C 9.1115,13 9,12.888 9,12.75 l 0,-1.5 C 9,11.112 9.1115,11 9.25,11 Z m 3,0 1.5,0 c 0.1385,0 0.25,0.1115 0.25,0.25 l 0,1.5 C 14,12.888 13.888,13 13.75,13 l -1.5,0 C 12.112,13 12,12.888 12,12.75 l 0,-1.5 C 12,11.112 12.112,11 12.25,11 Z m 3,0 1.5,0 c 0.1385,0 0.25,0.1115 0.25,0.25 l 0,1.5 C 17,12.888 16.888,13 16.75,13 l -1.5,0 C 15.112,13 15,12.888 15,12.75 l 0,-1.5 C 15,11.112 15.112,11 15.25,11 Z m -7,3 6.5,0 c 0.1385,0 0.25,0.1115 0.25,0.25 l 0,1.5 C 15,15.888 14.888,16 14.75,16 l -6.5,0 C 8.1115,16 8,15.888 8,15.75 l 0,-1.5 C 8,14.112 8.1115,14 8.25,14 Z"/>
</svg>

<svg xmlns="http://www.w3.org/2000/svg" width="24" height="24"><defs><style id="current-color-scheme" type="text/css"></style></defs><path d="M6 6S4 6 4 8v8c0 2 2 2 2 2h11s2 0 2-2V8c0-2-2-2-2-2H6zm.25 2h1.5a.25.25 0 0 1 .25.25v1.5a.25.25 0 0 1-.25.25h-1.5A.25.25 0 0 1 6 9.75v-1.5A.25.25 0 0 1 6.25 8zm3 0h1.5a.25.25 0 0 1 .25.25v1.5a.25.25 0 0 1-.25.25h-1.5A.25.25 0 0 1 9 9.75v-1.5A.25.25 0 0 1 9.25 8zm3 0h1.5a.25.25 0 0 1 .25.25v1.5a.25.25 0 0 1-.25.25h-1.5a.25.25 0 0 1-.25-.25v-1.5a.25.25 0 0 1 .25-.25zm3 0h1.5a.25.25 0 0 1 .25.25v1.5a.25.25 0 0 1-.25.25h-1.5a.25.25 0 0 1-.25-.25v-1.5a.25.25 0 0 1 .25-.25zm-9 3h1.5a.25.25 0 0 1 .25.25v1.5a.25.25 0 0 1-.25.25h-1.5a.25.25 0 0 1-.25-.25v-1.5a.25.25 0 0 1 .25-.25zm3 0h1.5a.25.25 0 0 1 .25.25v1.5a.25.25 0 0 1-.25.25h-1.5a.25.25 0 0 1-.25-.25v-1.5a.25.25 0 0 1 .25-.25zm3 0h1.5a.25.25 0 0 1 .25.25v1.5a.25.25 0 0 1-.25.25h-1.5a.25.25 0 0 1-.25-.25v-1.5a.25.25 0 0 1 .25-.25zm3 0h1.5a.25.25 0 0 1 .25.25v1.5a.25.25 0 0 1-.25.25h-1.5a.25.25 0 0 1-.25-.25v-1.5a.25.25 0 0 1 .25-.25zm-7 3h6.5a.25.25 0 0 1 .25.25v1.5a.25.25 0 0 1-.25.25h-6.5a.25.25 0 0 1-.25-.25v-1.5a.25.25 0 0 1 .25-.25z" opacity=".3" fill="currentColor" color="#dfdfdf"/></svg>
